X:1
T:Hymne an Gott
T:Johann Michael Haydn
T:Johann Agricola
T:Hymne an Gott
T:MH 588
T:CPDL - Creative Commons Attribution Non Commercial 3.0
T:CPDL - Creative Commons Attribution Non Commercial 3.0
C:Johann Michael Haydn
Z:Johann Agricola
Z:CPDL - Creative Commons Attribution Non Commercial 3.0
%%score [ 1 2 ( 3 4 ) ]
L:1/8
Q:1/4=90
M:4/4
K:Bb
V:1 treble-8 nm="Tenor\n1"
V:2 treble-8 nm="Tenor\n2"
V:3 bass nm="Bass"
V:4 bass 
V:1
"^Einzelne""^Majestätisch" d4 B4 | f6 A2 | B2 c2 d2 e2 |{e} d4 c4 | e4 g4 | g6 d2 | e2 e2 =e2 e2 | %7
w: 1.~Men- schen-|va- ter,|Erd\- und Welt- re-|gie- rer!|hoch er-|tönt ein|fro- her Lob- ge-|
w: |||||||
 f4 z4 | f6 B2 |{B} A4 A4 | B2 B2 g2 f2 | (f2 =e2) _e4 | d6 d2 | e2 e2 f2!p! g2 | B4 c4 | %15
w: sang;|weit er-|schallt dir,|Völ- ker\-, Ster- nen-|füh- * rer!|Na- ti-|o- nen- ruf und|Sphä- ren-|
w: ||||||||
 (c2 ^c2 d4) |"^Chor"!f! B4 B4 | g6 B2 | A2 c2 c2 f2 | (f2 _A2) A4 | (G2 e2) (e2 g2) | g6 f2 | %22
w: klang. _ _|Men- schen-|va- ter,|Erd- und Welt- re-|gie- * rer!|dir _ er- *|1.~tö- net|
w: ||||||2.~hehr die|
 f2 e2 d2 c2 |{c} d4!p! d2 B2 | f4 f4 | f4 f4 | f6 F2 | !fermata!F8 |] %28
w: un- ser Hoch- ge-|sang, dir er|tö- net|un- ser|Hoch- ge-|sang.|
w: Wun- der dei- ner|Macht, groß und|hehr die|Wun- der|dei- ner|Macht.|
V:2
 F4 F4 | e4 c4 | B2 A2 B2 c2 |{c} B4 A4 | c4 e4 | d4 G4 | G2 c2 c2 c2 | c4 z4 | B6 F2 | F4 F4 | %10
w: 2.~Groß und|hehr sind|dei- ner Lie- be|Ta- ten,|groß und|hehr die|Wun- der dei- ner|Macht;|rings ent-|sprie- ßen|
w: ||||||||||
 F2 B2 B2 B2 | c4 A4 | z2 f4 f2 | B2 e2 d2!p! c2 | (d4 e2) A2 | (A4 B4) |!f! d4 d4 | _d4 c4 | %18
w: dei- nes Se- gens|Saa- ten,|dei- ne|Huld ver- kün- den|Tag _ und|Nacht. _|Groß und|hehr sind|
w: ||||||||
 c2 A2 A2 c2 | (_c2 B2) B4 | (B2 G2) (G2 e2) | e6 d2 | d2 c2 B2 A2 |{A} B4 z4 | z4!p! .e2 .e2 | %25
w: dei- ner Lie- be|Ta- * ten,|groß _ und _|1.~tö- net|un- ser Hoch- ge-|sang,|dir er|
w: |||2.~hehr die|Wun- der dei- ner|Macht,|groß und|
 .d2 .d2 .c2 .c2 | B4 c4 | !fermata!d8 |] %28
w: tö- net un- ser|Hoch- ge-|sang.|
w: hehr die Wun- der|dei- ner|Macht.|
V:3
 B,4 B,4 | A,6 F,2 | F,2 E,2 F,2 F,2 | F,4 F,4 | G,4 C4 | =B,4 F,4 | E,2 G,2 _B,2 B,2 | A,4 z4 | %8
 F,6 F,2 | E,4 E,4 | D,2 F,2 G,2 B,2 | F,4 C4 | B,4 B,4 | B,2 B,2 B,2!p! B,2 | %14
 (F,4 A,2)"^dim." F2 | (F4 B,4) |!f! G,4 G,4 | B,4 G,4 | F,2 F,2 F,2 A,2 | (_A,2 F,2) F,4 | %20
 z2 (B,2 C2) C2 | C4 B,4 | G,2 G,2 F,2 F,2 | F,4 z4 | z4!p! .C2 .C2 | .B,2 .B,2 .C2 .C2 | F,4 A,4 | %27
 !fermata!B,8 |] %28
V:4
 B,,4 D,4 | C,4 E,4 | D,2 C,2 B,,2 A,,2 | B,,4 F,4 | E,4 C,4 | G,4 =B,,4 | C,2 C,2 G,2 G,2 | %7
 F,4 x4 | D,6 D,2 | C,4 C,4 | D,2 D,2 E,2 D,2 | A,,4 F,4 | B,,4 _A,4 | G,2 G,2 F,2 =E,2 | F,4 F,4 | %15
 B,,8 | G,4 F,4 | =E,4 E,4 | F,2 F,2 _E,2 E,2 | D,4 D,4 | E,4 C,4 | A,,4 B,,4 | E,2 E,2 F,2 F,2 | %23
 B,,4 x4 | x4 .A,2 .A,2 | .B,2 .B,2 .E,2 .E,2 | D,4 F,4 | B,,8 |] %28

